priv/static/images/languages/liquid.svg

<svg
  width="194"
  height="194"
  viewBox="0 0 194 194"
  fill="none"
  xmlns="http://www.w3.org/2000/svg"
>
  <path
    d="M87.0511 0.454173C49.1527 4.15378 16.9992 29.8706 4.90777 66.0846C-0.776996 83.0487 -1.52895 101.547 2.68199 119.263C9.63004 148.439 30.6847 173.343 58.4468 185.254C79.5316 194.278 103.414 195.511 125.341 188.683C157.645 178.637 182.76 151.687 190.49 118.782C193.377 106.51 193.828 92.403 191.723 80.2815C185.647 45.0901 160.833 16.2151 126.965 4.90574C114.452 0.724876 100.286 -0.869264 87.0511 0.454173ZM104.196 8.3948C116.046 9.50769 127.717 12.9366 138.034 18.3807C150.215 24.8175 161.284 34.4725 169.285 45.6616C179.842 60.3698 185.677 77.9956 185.948 95.7417L186.008 99.9225L184.655 100.434C182.489 101.246 181.015 101.938 180.173 102.569C179.752 102.87 178.188 103.562 176.684 104.073C174.278 104.946 173.586 105.036 170.518 105.066C168.623 105.066 166.518 104.976 165.856 104.825C164.653 104.585 161.284 103.201 159.419 102.148C158.306 101.547 155.028 100.344 153.524 99.9827C150.516 99.2909 146.425 99.2608 143.297 99.9827C141.342 100.434 138.034 101.757 136.83 102.599C136.409 102.9 134.875 103.562 133.371 104.103C130.845 104.976 130.394 105.066 126.754 105.066C123.145 105.066 122.634 104.976 120.257 104.133C118.844 103.622 117.129 102.87 116.498 102.479C114.212 101.096 111.324 100.073 108.407 99.6518C107.625 99.5315 102.571 99.5315 101.789 99.6518C99.2929 100.013 95.3226 101.366 93.8187 102.359C91.8636 103.652 91.5328 103.622 90.6004 102.178C90.1492 101.457 89.6679 100.825 89.5476 100.795C89.3972 100.735 89.307 100.494 89.307 100.253C89.307 100.013 89.1867 99.8323 89.0363 99.8323C88.8859 99.8323 88.6754 99.5917 88.5851 99.2909C88.4648 98.9901 88.134 98.4487 87.8031 98.0878L87.2015 97.4561L88.555 96.1628C89.307 95.4409 89.9086 94.6889 89.9086 94.4784C89.9086 94.2979 90.0289 94.1175 90.1793 94.1175C90.3297 94.1175 90.5101 93.8768 90.6304 93.5761C90.7207 93.3054 90.9312 92.8542 91.0816 92.6136C91.623 91.7112 92.2847 89.9065 92.5554 88.553C92.7961 87.4702 92.7961 83.7104 92.5855 82.6878C92.1644 80.7929 91.3222 78.4468 90.7808 77.785C90.48 77.3639 90.2093 76.9429 90.2093 76.8526C90.2093 76.3112 87.5023 73.6042 85.8179 72.4311C81.3664 69.3632 74.8394 69.1225 69.4855 71.7995C68.5832 72.2507 67.1093 73.3936 66.1769 74.3261C63.9812 76.612 63.7406 76.8827 63.7406 77.2737C63.7406 77.4241 63.6504 77.5745 63.5 77.5745C63.3797 77.5745 63.109 78.0257 62.8984 78.537C62.6578 79.0784 62.357 79.8003 62.2367 80.1311C61.9961 80.6425 61.7855 81.5448 61.4246 83.2893C61.1539 84.703 61.3343 88.0417 61.7554 89.7561C61.9359 90.4179 63.1691 93.2753 63.6203 94.0573C63.6504 94.1175 64.0414 94.2077 64.5226 94.2979C65.0039 94.3882 65.5453 94.5085 65.6957 94.5386C66.7183 94.7491 67.8613 95.2303 70.809 96.6741C73.8168 98.1479 74.3882 98.3886 75.3207 98.6292C75.5011 98.6593 75.9523 98.8096 76.3433 98.96C77.3359 99.3511 79.0504 99.6518 80.1332 99.5917C81.1257 99.5616 81.3363 99.8323 83.141 103.321L84.1035 105.186L82.5695 105.096C81.3062 105.006 78.7496 104.585 77.4261 104.224C76.5238 103.953 73.6965 102.63 72.0121 101.667C69.0644 99.9827 62.1164 98.5991 59.8304 99.2307C59.4093 99.3511 58.1761 99.6218 57.0632 99.8323C55.0781 100.193 52.1605 101.216 51.3484 101.817C50.4761 102.509 47.1675 104.013 45.5132 104.494C42.7761 105.307 38.114 105.246 34.5648 104.404C33.4519 104.133 30.414 102.72 29.1207 101.848C28.2183 101.246 25.4511 100.223 23.1953 99.6819C21.6312 99.321 15.6156 99.2608 14.1418 99.6518C11.525 100.283 8.21636 101.637 7.13355 102.479C6.68238 102.84 6.62222 102.69 6.44176 100.855C6.20113 98.7194 6.44176 92.7639 6.92301 88.2522C10.0211 59.2569 27.0753 33.6003 52.7621 19.2831C62.6578 13.7788 75.08 9.80847 86.4496 8.57527C91.1718 8.06394 99.684 7.9737 104.196 8.3948ZM81.0656 77.3639C87.9234 80.853 87.9234 90.4479 81.0656 93.8167C79.2308 94.719 78.93 94.7792 76.7043 94.6589C73.9672 94.5085 72.373 93.7264 70.5382 91.6811C68.9441 89.9366 68.1922 88.0718 68.1621 85.8761C68.132 81.635 70.4781 78.2964 74.5386 76.7624C76.1929 76.1608 79.2308 76.4315 81.0656 77.3639ZM22.4433 109.908C24.3683 110.36 26.1429 111.142 28.5492 112.525C29.3011 112.976 30.9855 113.698 32.3089 114.149C34.5046 114.932 35.1062 114.992 39.0765 115.022C44.28 115.022 45.4531 114.751 50.6566 112.164C55.0781 109.939 56.973 109.457 60.8832 109.457C64.8234 109.457 67.1695 110.059 70.6285 111.894C72.1625 112.706 74.4484 113.758 75.7418 114.21C77.8172 114.932 78.4488 114.992 82.389 115.022C87.5324 115.022 89.5476 114.51 93.9992 112.134C97.4582 110.269 100.556 109.457 104.196 109.457C107.775 109.457 110.662 110.209 114.482 112.104C119.265 114.51 121.25 115.022 125.852 115.022C130.634 114.992 132.259 114.601 137.252 112.164C141.613 110.059 143.929 109.457 147.568 109.457C151.087 109.457 154.005 110.209 157.795 112.104C162.517 114.48 164.562 115.022 169.014 115.022C173.706 115.022 176.082 114.45 180.083 112.405C181.677 111.563 183.512 110.691 184.173 110.48L185.316 110.059L185.136 111.503C185.016 112.285 184.715 114.029 184.444 115.383L183.963 117.849L180.023 119.804C175.391 122.12 173.225 122.692 169.164 122.692C165.314 122.692 163.48 122.21 158.787 119.985C153.764 117.608 151.99 117.157 147.508 117.157C142.996 117.157 141.192 117.639 136.379 119.985C132.078 122.09 129.762 122.692 125.792 122.722C122.032 122.722 120.197 122.241 115.475 119.985C110.452 117.608 108.677 117.157 104.196 117.157C99.684 117.157 97.8492 117.639 93.0668 119.985C88.4949 122.241 86.7504 122.692 82.5394 122.692C78.2683 122.692 76.614 122.241 71.7113 119.834C67.38 117.669 64.7031 116.977 60.8832 116.977C57.0933 116.977 54.3863 117.699 50.055 119.834C45.1824 122.241 43.498 122.692 39.2269 122.692C34.9558 122.692 33.3015 122.241 28.3988 119.834C24.0675 117.669 21.3906 116.977 17.5707 116.977C15.1644 116.977 11.525 117.608 9.81051 118.33L8.78785 118.751L8.3066 116.435C7.28394 111.593 7.19371 112.074 9.20894 111.172C10.2015 110.721 11.7355 110.179 12.6378 109.939C14.7734 109.367 20.0671 109.337 22.4433 109.908ZM58.2363 126.782C58.1461 126.873 57.8754 126.903 57.6648 126.812C57.4242 126.722 57.5144 126.632 57.8453 126.632C58.1761 126.602 58.3566 126.692 58.2363 126.782ZM22.5336 129.189C23.6164 129.429 25.7519 130.301 27.316 131.144C28.85 131.956 31.1359 133.008 32.4293 133.46C34.5046 134.182 35.1363 134.242 39.0765 134.272C44.28 134.272 45.4531 134.001 50.6566 131.414C55.0781 129.189 56.973 128.707 60.8832 128.707C64.8234 128.707 67.1695 129.309 70.6285 131.144C72.1625 131.956 74.4484 133.008 75.7418 133.46C77.8172 134.182 78.4488 134.242 82.389 134.272C87.5625 134.272 89.2168 133.851 94.2398 131.294C97.9394 129.369 100.586 128.707 104.286 128.707C107.775 128.707 110.693 129.459 114.452 131.354C118.483 133.369 121.039 134.121 124.528 134.332C129.221 134.603 132.018 133.941 137.582 131.234C141.553 129.309 143.899 128.707 147.538 128.707C151.087 128.707 153.975 129.459 157.765 131.354C161.855 133.399 164.352 134.151 167.961 134.332C171.33 134.512 174.97 133.941 177.526 132.858C178.308 132.527 179.03 132.317 179.15 132.407C179.241 132.527 178.368 134.542 177.195 136.949L175.09 141.28L173.556 141.611C171.3 142.092 166.548 142.032 164.382 141.491C163.389 141.22 160.863 140.197 158.787 139.235C153.764 136.858 151.99 136.407 147.508 136.407C142.996 136.407 141.192 136.889 136.379 139.235C132.048 141.37 129.852 141.942 125.882 141.942C122.092 141.942 120.137 141.43 115.475 139.235C110.452 136.858 108.677 136.407 104.196 136.407C99.684 136.407 97.8492 136.889 93.0668 139.235C88.525 141.491 86.7504 141.942 82.5996 141.942C78.3886 141.942 76.614 141.46 71.7113 139.054C67.38 136.919 64.7031 136.227 60.8531 136.227C57.0933 136.227 54.3863 136.949 50.055 139.084C45.2125 141.491 43.498 141.942 39.2871 141.942C35.0461 141.942 33.2714 141.46 28.3988 139.054C24.0375 136.889 21.4507 136.227 17.3902 136.227H14.9839L14.1117 134.332C13.6304 133.309 12.9687 131.745 12.6378 130.903L12.0062 129.309L12.8484 129.128C13.2996 129.038 13.8109 128.918 13.9613 128.858C14.8636 128.557 20.8191 128.767 22.5336 129.189ZM39.9187 132.527C39.6179 132.587 39.0765 132.587 38.7156 132.527C38.3246 132.467 38.5652 132.407 39.2269 132.407C39.8886 132.377 40.1894 132.437 39.9187 132.527ZM83.2312 132.527C82.9304 132.587 82.389 132.587 82.0281 132.527C81.6371 132.467 81.8777 132.407 82.5394 132.407C83.2011 132.377 83.5019 132.437 83.2312 132.527ZM169.706 132.527C169.495 132.587 169.134 132.587 168.954 132.527C168.743 132.437 168.894 132.377 169.315 132.377C169.736 132.377 169.886 132.437 169.706 132.527ZM65.7859 148.408C66.8086 148.649 69.2449 149.672 71.2 150.634C76.2531 153.221 77.4863 153.522 82.5394 153.522C87.5324 153.522 89.6078 153.01 93.9992 150.634C97.4582 148.769 100.556 147.957 104.196 147.957C107.775 147.957 110.662 148.709 114.482 150.604C119.265 153.01 121.25 153.522 125.852 153.522C130.634 153.492 132.259 153.101 137.252 150.664C141.553 148.559 143.809 147.957 147.538 147.957C151.087 147.957 153.975 148.709 157.765 150.604C160.803 152.138 164.322 153.371 165.555 153.371C165.946 153.371 166.337 153.492 166.427 153.642C166.578 153.853 163.54 157.642 161.855 159.357C161.525 159.718 160.983 159.537 158.246 158.244C153.795 156.108 151.9 155.657 147.508 155.657C143.027 155.657 141.222 156.108 136.379 158.455C131.928 160.62 129.491 161.252 125.702 161.222C122.062 161.222 120.137 160.71 115.475 158.485C110.452 156.108 108.677 155.657 104.196 155.657C99.684 155.657 97.8492 156.139 93.0668 158.485C88.5851 160.71 86.4496 161.282 82.5394 161.282C78.5992 161.282 76.5238 160.71 71.7113 158.334C66.8687 155.928 64.1918 155.326 59.68 155.567C55.9804 155.778 53.514 156.499 49.3031 158.665C45.3328 160.71 43.107 161.282 39.2269 161.252C33.3918 161.252 31.3765 160.38 28.098 156.469C25.6617 153.552 22.714 149.732 22.2027 148.769C21.932 148.318 21.9921 148.258 22.7441 148.439C23.1953 148.529 25.3609 149.461 27.4964 150.514C33.091 153.251 34.1738 153.522 39.2269 153.522C44.28 153.522 45.4832 153.221 50.6566 150.664C52.6418 149.672 55.0179 148.649 55.9203 148.439C58.116 147.867 63.4097 147.837 65.7859 148.408ZM65.7859 167.658C67.5906 168.08 70.2976 169.283 72.3129 170.516C72.8242 170.817 74.298 171.448 75.6215 171.899C77.8172 172.682 78.4187 172.742 82.389 172.772C87.5324 172.772 89.5476 172.26 93.9992 169.884C97.4582 168.019 100.556 167.207 104.196 167.207C107.775 167.207 110.662 167.959 114.482 169.854C119.265 172.26 121.25 172.772 125.852 172.772C130.574 172.772 132.289 172.321 136.891 170.035C141.462 167.749 144.17 167.117 148.411 167.267C152.321 167.418 152.832 167.598 151.839 168.531C150.937 169.343 146.455 172.561 144.651 173.674C143.899 174.125 143.237 174.607 143.147 174.727C143.057 174.847 141.974 175.298 140.741 175.78C139.507 176.231 137.552 177.103 136.379 177.735C132.71 179.69 130.785 180.231 126.754 180.382C122.212 180.532 120.558 180.171 115.475 177.735C110.452 175.328 108.677 174.877 104.196 174.907C99.684 174.907 97.8793 175.358 93.0668 177.735C88.4949 179.991 86.7504 180.442 82.5394 180.442C78.2683 180.442 76.614 179.991 71.7113 177.584C65.2445 174.366 60.1312 173.885 53.8449 175.84C52.0101 176.411 52.1004 176.441 47.6488 173.584C45.6035 172.291 45.5734 172.23 46.2953 171.93C46.7164 171.779 48.6714 170.847 50.6566 169.884C52.6418 168.892 55.0179 167.899 55.9203 167.689C58.116 167.117 63.4097 167.087 65.7859 167.658ZM92.8261 190.548C92.7359 190.638 92.4652 190.668 92.2547 190.578C92.014 190.488 92.1043 190.398 92.4351 190.398C92.766 190.367 92.9465 190.458 92.8261 190.548Z"
    fill="#4971FF"
  />
  <path
    d="M51.1981 70.7468L50.5063 71.2882V83.7405V96.1929L51.8599 95.6214C53.0931 95.08 54.1458 94.7792 56.3114 94.2979L57.1235 94.1175V82.7179C57.1235 69.5437 57.3642 70.4761 53.9954 70.2956C52.311 70.2354 51.7696 70.3257 51.1981 70.7468Z"
    fill="#4971FF"
  />
  <path
    d="M99.5334 70.3558L96.676 70.5062L96.5858 80.5824C96.5256 90.0269 96.5557 90.7789 97.1272 92.7039C97.6987 94.5086 97.819 94.7191 98.3604 94.5687C99.5033 94.2078 102.361 93.8769 104.105 93.9371L105.82 93.9672L104.947 93.125C103.173 91.3804 103.143 91.1699 103.143 80.4922C103.143 73.0328 103.053 70.6566 102.782 70.4761C102.571 70.3258 101.097 70.2656 99.5334 70.3558Z"
    fill="#4971FF"
  />
  <path
    d="M118.333 70.2955C116.648 70.3556 115.565 70.506 115.415 70.7466C115.295 70.9572 115.174 75.4388 115.174 80.7326C115.174 89.4853 115.114 90.4779 114.603 91.5908C113.971 92.9443 112.497 94.2677 111.174 94.5685C110.392 94.7791 110.512 94.8693 112.678 95.7716C113.971 96.283 115.746 97.0951 116.618 97.5462C118.122 98.2982 118.272 98.3283 118.784 97.8771C119.716 97.0349 121.13 94.0271 121.461 92.1923C121.942 89.5455 121.912 70.8068 121.431 70.4759C121.22 70.3255 119.836 70.2353 118.333 70.2955Z"
    fill="#4971FF"
  />
  <path
    d="M148.08 70.3558C143.839 70.4761 142.215 70.6265 141.854 70.9273C141.402 71.2882 141.342 72.5214 141.342 82.8984V94.4484L142.936 94.2679C143.809 94.1476 145.252 94.0273 146.155 93.9972L147.809 93.907L147.899 84.8535L147.959 75.7699H151.088C153.945 75.7699 154.336 75.83 156.02 76.6722C158.066 77.725 159.479 79.1386 160.412 81.1539C161.194 82.9585 161.254 87.0792 160.472 88.7937C159.299 91.4105 155.78 94.1175 153.554 94.1175C152.321 94.1175 152.682 94.3582 155.389 95.2906C156.682 95.7417 158.547 96.5238 159.479 97.0351L161.194 97.9675L162.788 96.6742C166.849 93.3656 168.713 87.771 167.57 82.1765C166.458 76.6421 161.795 71.8597 156.381 70.6867C154.065 70.1753 154.396 70.1753 148.08 70.3558Z"
    fill="#4971FF"
  />
  <path
    d="M28.7599 70.5663C28.6396 70.6566 28.5493 76.5218 28.5493 83.5902V96.4335L30.4442 97.3359C32.3091 98.2382 33.2415 98.6593 33.813 98.7796C33.9935 98.8398 34.8657 99.0503 35.7981 99.2909C37.9337 99.8624 41.904 99.8624 44.1298 99.321C45.0622 99.0804 46.145 98.8097 46.536 98.7195C46.897 98.6292 47.1978 98.3284 47.2278 98.0577C47.3181 96.3433 47.1075 93.907 46.8368 93.6062C46.5962 93.3054 45.0321 93.2152 40.8513 93.2152H35.1665V81.9659C35.1665 71.98 35.1063 70.6866 34.6853 70.5362C34.0536 70.2956 29.0005 70.2956 28.7599 70.5663Z"
    fill="#4971FF"
  />
  <path
    d="M128.409 84.9436V99.5315H129.251C130.334 99.5315 132.83 98.8397 134.063 98.2081L135.026 97.6967V84.9737C135.026 77.9655 134.936 71.7995 134.845 71.2881L134.665 70.3557H131.537H128.409V84.9436Z"
    fill="#4971FF"
  />
</svg>

<svg xmlns="http://www.w3.org/2000/svg" width="194" height="194" fill="none"><path fill="#4971FF" d="M87.051.454C49.153 4.154 17 29.871 4.908 66.084c-5.685 16.966-6.438 35.464-2.226 53.18 6.948 29.176 28.003 54.08 55.765 65.991 21.085 9.024 44.967 10.257 66.894 3.429 32.304-10.046 57.419-36.996 65.149-69.901 2.887-12.272 3.338-26.379 1.233-38.5a96.7 96.7 0 0 0-64.758-75.376C114.452.725 100.286-.87 87.051.454m17.145 7.94c11.85 1.114 23.521 4.543 33.838 9.987 12.181 6.436 23.25 16.091 31.251 27.28 10.557 14.709 16.392 32.335 16.663 50.08l.06 4.182-1.353.511c-2.166.812-3.64 1.504-4.482 2.135-.421.301-1.985.993-3.489 1.504-2.406.873-3.098.963-6.166.993-1.895 0-4-.09-4.662-.241-1.203-.24-4.572-1.624-6.437-2.677-1.113-.601-4.391-1.804-5.895-2.165-3.008-.692-7.099-.722-10.227 0-1.955.451-5.263 1.774-6.467 2.616-.421.301-1.955.963-3.459 1.504-2.526.873-2.977.963-6.617.963-3.609 0-4.12-.09-6.497-.933-1.413-.511-3.128-1.263-3.759-1.654-2.286-1.383-5.174-2.406-8.091-2.827-.782-.12-5.836-.12-6.618 0-2.496.361-6.466 1.714-7.97 2.707-1.955 1.293-2.286 1.263-3.219-.181-.45-.721-.932-1.353-1.052-1.383-.15-.06-.241-.301-.241-.542 0-.24-.12-.42-.27-.42s-.362-.241-.452-.542c-.12-.3-.451-.842-.782-1.203l-.602-.632 1.354-1.293c.752-.722 1.354-1.474 1.354-1.685 0-.18.12-.36.27-.36s.331-.241.451-.542c.09-.27.301-.722.452-.962.541-.903 1.203-2.708 1.473-4.061.241-1.083.241-4.843.03-5.865-.42-1.895-1.263-4.241-1.804-4.903-.301-.421-.572-.842-.572-.932 0-.542-2.707-3.249-4.391-4.422-4.452-3.068-10.979-3.308-16.332-.632-.903.452-2.377 1.595-3.31 2.527-2.195 2.286-2.435 2.557-2.435 2.948 0 .15-.09.3-.241.3-.12 0-.391.452-.602.963-.24.541-.541 1.263-.661 1.594-.24.511-.452 1.414-.812 3.158-.271 1.414-.09 4.753.33 6.467.18.662 1.414 3.52 1.865 4.301.03.06.421.15.903.24.48.091 1.022.212 1.173.242 1.022.21 2.165.691 5.113 2.135 3.008 1.474 3.58 1.715 4.512 1.955.18.03.631.18 1.022.331.993.391 2.707.692 3.79.632.993-.03 1.203.24 3.008 3.729l.962 1.865-1.533-.09c-1.264-.09-3.82-.511-5.144-.872-.902-.271-3.73-1.594-5.414-2.557-2.948-1.684-9.896-3.068-12.182-2.436-.42.12-1.654.39-2.767.601-1.985.361-4.903 1.384-5.715 1.985-.872.692-4.18 2.196-5.835 2.677-2.737.813-7.399.752-10.948-.09-1.113-.271-4.151-1.684-5.444-2.556-.903-.602-3.67-1.625-5.926-2.166-1.564-.361-7.58-.421-9.053-.03-2.617.631-5.926 1.985-7.008 2.827-.452.361-.512.211-.692-1.624-.24-2.136 0-8.091.481-12.603 3.098-28.995 20.152-54.652 45.84-68.969C62.657 13.78 75.08 9.808 86.45 8.575c4.722-.511 13.234-.601 17.746-.18m-23.13 68.97c6.857 3.489 6.857 13.084 0 16.453-1.835.902-2.136.962-4.362.842-2.737-.15-4.331-.933-6.166-2.978-1.594-1.744-2.346-3.61-2.376-5.805-.03-4.241 2.316-7.58 6.377-9.114 1.654-.601 4.692-.33 6.527.602m-58.623 32.544c1.925.452 3.7 1.234 6.106 2.617.752.451 2.436 1.173 3.76 1.624 2.196.783 2.797.843 6.768.873 5.203 0 6.376-.271 11.58-2.858 4.421-2.225 6.316-2.707 10.226-2.707 3.94 0 6.286.602 9.746 2.437 1.533.812 3.82 1.864 5.113 2.316 2.075.722 2.707.782 6.647.812 5.143 0 7.159-.512 11.61-2.888 3.46-1.865 6.557-2.677 10.197-2.677 3.579 0 6.466.752 10.286 2.647 4.783 2.406 6.768 2.918 11.37 2.918 4.782-.03 6.407-.421 11.4-2.858 4.361-2.105 6.677-2.707 10.316-2.707 3.519 0 6.437.752 10.227 2.647 4.722 2.376 6.767 2.918 11.219 2.918 4.692 0 7.068-.572 11.069-2.617 1.594-.842 3.429-1.714 4.09-1.925l1.143-.421-.18 1.444c-.12.782-.421 2.526-.692 3.88l-.481 2.466-3.94 1.955c-4.632 2.316-6.798 2.888-10.859 2.888-3.85 0-5.684-.482-10.377-2.707-5.023-2.377-6.797-2.828-11.279-2.828-4.512 0-6.316.482-11.129 2.828-4.301 2.105-6.617 2.707-10.587 2.737-3.76 0-5.595-.481-10.317-2.737-5.023-2.377-6.798-2.828-11.279-2.828-4.512 0-6.347.482-11.13 2.828-4.571 2.256-6.316 2.707-10.527 2.707-4.27 0-5.925-.451-10.828-2.858-4.331-2.165-7.008-2.857-10.828-2.857-3.79 0-6.497.722-10.828 2.857-4.873 2.407-6.557 2.858-10.828 2.858s-5.925-.451-10.828-2.858c-4.332-2.165-7.008-2.857-10.828-2.857-2.407 0-6.046.631-7.76 1.353l-1.023.421-.481-2.316c-1.023-4.842-1.113-4.361.902-5.263a26 26 0 0 1 3.429-1.233c2.135-.572 7.43-.602 9.805-.031m35.793 16.874c-.09.091-.36.121-.571.03-.24-.09-.15-.18.18-.18.331-.03.512.06.391.15m-35.702 2.407c1.082.24 3.218 1.112 4.782 1.955 1.534.812 3.82 1.864 5.113 2.316 2.076.722 2.707.782 6.648.812 5.203 0 6.376-.271 11.58-2.858 4.421-2.225 6.316-2.707 10.226-2.707 3.94 0 6.286.602 9.746 2.437 1.533.812 3.82 1.864 5.113 2.316 2.075.722 2.707.782 6.647.812 5.174 0 6.828-.421 11.85-2.978 3.7-1.925 6.347-2.587 10.047-2.587 3.489 0 6.407.752 10.166 2.647 4.031 2.015 6.587 2.767 10.076 2.978 4.693.271 7.49-.391 13.054-3.098 3.971-1.925 6.317-2.527 9.956-2.527 3.549 0 6.437.752 10.227 2.647 4.09 2.045 6.587 2.797 10.196 2.978 3.369.18 7.009-.391 9.565-1.474.782-.331 1.504-.541 1.624-.451.091.12-.782 2.135-1.955 4.542l-2.105 4.331-1.534.331c-2.256.481-7.008.421-9.174-.12-.993-.271-3.519-1.294-5.595-2.256-5.023-2.377-6.797-2.828-11.279-2.828-4.512 0-6.316.482-11.129 2.828-4.331 2.135-6.527 2.707-10.497 2.707-3.79 0-5.745-.512-10.407-2.707-5.023-2.377-6.798-2.828-11.279-2.828-4.512 0-6.347.482-11.13 2.828-4.541 2.256-6.316 2.707-10.466 2.707-4.211 0-5.986-.482-10.889-2.888-4.331-2.135-7.008-2.827-10.858-2.827-3.76 0-6.467.722-10.798 2.857-4.843 2.407-6.557 2.858-10.768 2.858-4.24 0-6.016-.482-10.888-2.888-4.361-2.165-6.948-2.827-11.009-2.827h-2.406l-.872-1.895a70 70 0 0 1-1.474-3.429l-.632-1.594.842-.181c.452-.09.963-.21 1.113-.27.903-.301 6.858-.091 8.573.331m17.385 3.338c-.301.06-.842.06-1.203 0-.391-.06-.15-.12.51-.12.663-.03.963.03.693.12m43.312 0c-.3.06-.842.06-1.203 0-.39-.06-.15-.12.511-.12.662-.03.963.03.692.12m86.475 0c-.211.06-.572.06-.752 0-.211-.09-.06-.15.361-.15s.571.06.391.15m-103.92 15.881c1.023.241 3.459 1.264 5.414 2.226 5.053 2.587 6.286 2.888 11.34 2.888 4.992 0 7.068-.512 11.46-2.888 3.458-1.865 6.556-2.677 10.196-2.677 3.579 0 6.466.752 10.286 2.647 4.783 2.406 6.768 2.918 11.37 2.918 4.782-.03 6.407-.421 11.4-2.858 4.301-2.105 6.557-2.707 10.286-2.707 3.549 0 6.437.752 10.227 2.647 3.038 1.534 6.557 2.767 7.79 2.767.391 0 .782.121.872.271.151.211-2.887 4-4.572 5.715-.33.361-.872.18-3.609-1.113-4.451-2.136-6.346-2.587-10.738-2.587-4.481 0-6.286.451-11.129 2.798-4.451 2.165-6.888 2.797-10.677 2.767-3.64 0-5.565-.512-10.227-2.737-5.023-2.377-6.798-2.828-11.279-2.828-4.512 0-6.347.482-11.13 2.828-4.48 2.225-6.616 2.797-10.527 2.797-3.94 0-6.015-.572-10.828-2.948-4.842-2.406-7.52-3.008-12.031-2.767-3.7.211-6.166.932-10.377 3.098-3.97 2.045-6.196 2.617-10.076 2.587-5.835 0-7.85-.872-11.129-4.783-2.436-2.917-5.384-6.737-5.895-7.7-.271-.451-.21-.511.541-.33.451.09 2.617 1.022 4.752 2.075 5.595 2.737 6.678 3.008 11.73 3.008 5.054 0 6.257-.301 11.43-2.858 1.986-.992 4.362-2.015 5.264-2.225 2.196-.572 7.49-.602 9.866-.031m0 19.25c1.805.422 4.512 1.625 6.527 2.858.511.301 1.985.932 3.308 1.383 2.196.783 2.798.843 6.768.873 5.143 0 7.159-.512 11.61-2.888 3.46-1.865 6.557-2.677 10.197-2.677 3.579 0 6.466.752 10.286 2.647 4.783 2.406 6.768 2.918 11.37 2.918 4.722 0 6.437-.451 11.039-2.737 4.571-2.286 7.279-2.918 11.52-2.768 3.91.151 4.421.331 3.428 1.264-.902.812-5.384 4.03-7.188 5.143-.752.451-1.414.933-1.504 1.053s-1.173.571-2.406 1.053c-1.234.451-3.189 1.323-4.362 1.955-3.669 1.955-5.594 2.496-9.625 2.647-4.542.15-6.196-.211-11.279-2.647-5.023-2.407-6.798-2.858-11.279-2.828-4.512 0-6.317.451-11.13 2.828-4.571 2.256-6.316 2.707-10.527 2.707-4.27 0-5.925-.451-10.828-2.858-6.466-3.218-11.58-3.699-17.866-1.744-1.835.571-1.745.601-6.196-2.256-2.046-1.293-2.076-1.354-1.354-1.654.421-.151 2.376-1.083 4.362-2.046 1.985-.992 4.36-1.985 5.263-2.195 2.196-.572 7.49-.602 9.866-.031m27.04 22.89c-.09.09-.36.12-.571.03-.241-.09-.15-.18.18-.18.331-.031.511.06.391.15"/><path fill="#4971FF" d="m51.198 70.747-.692.541v24.905l1.354-.572c1.233-.541 2.286-.842 4.451-1.323l.813-.18v-11.4c0-13.174.24-12.242-3.129-12.422-1.684-.06-2.225.03-2.797.45m48.335-.39-2.857.15-.09 10.076c-.06 9.445-.03 10.197.541 12.122.572 1.805.692 2.015 1.233 1.865 1.143-.361 4.001-.692 5.745-.632l1.715.03-.873-.842c-1.774-1.745-1.804-1.955-1.804-12.633 0-7.46-.09-9.835-.361-10.016-.211-.15-1.685-.21-3.249-.12m18.8-.06c-1.685.06-2.768.21-2.918.45-.12.211-.241 4.693-.241 9.987 0 8.752-.06 9.745-.571 10.858-.632 1.353-2.106 2.677-3.429 2.978-.782.21-.662.3 1.504 1.203a53 53 0 0 1 3.94 1.774c1.504.752 1.654.782 2.166.331.932-.842 2.346-3.85 2.677-5.685.481-2.646.451-21.385-.03-21.716-.211-.15-1.595-.24-3.098-.18m29.747.06c-4.241.12-5.865.27-6.226.571-.452.361-.512 1.594-.512 11.971v11.55l1.594-.18c.873-.12 2.316-.24 3.219-.27l1.654-.091.09-9.053.06-9.084h3.129c2.857 0 3.248.06 4.932.902 2.046 1.053 3.459 2.467 4.392 4.482.782 1.805.842 5.925.06 7.64-1.173 2.617-4.692 5.324-6.918 5.324-1.233 0-.872.24 1.835 1.173 1.293.45 3.158 1.233 4.09 1.744l1.715.933 1.594-1.294c4.061-3.308 5.925-8.903 4.782-14.498-1.112-5.534-5.775-10.316-11.189-11.49-2.316-.51-1.985-.51-8.301-.33m-119.32.21c-.12.09-.21 5.956-.21 13.024v12.843l1.894.903c1.865.902 2.798 1.323 3.369 1.444.18.06 1.053.27 1.985.51 2.136.572 6.106.572 8.332.031.932-.24 2.015-.511 2.406-.602.361-.09.662-.39.692-.661.09-1.715-.12-4.151-.391-4.452-.24-.3-1.805-.39-5.986-.39h-5.684v-11.25c0-9.986-.06-11.28-.482-11.43-.631-.24-5.685-.24-5.925.03m99.649 14.378V99.53h.842c1.083 0 3.579-.691 4.812-1.323l.963-.511V84.974c0-7.008-.09-13.175-.181-13.686l-.18-.932h-6.256z"/></svg>
